X:1
T:Send Us a Savior
T:Send Us a Savior
T:Edmund Simon Lorenz
T:Edmund Simon Lorenz, 1880
T:Public Domain Courtesy of the Cyber Hymnal™
T:Public Domain Courtesy of the Cyber Hymnal™
C:Edmund Simon Lorenz
Z:Public Domain
Z:Courtesy of the Cyber Hymnal™
%%score ( 1 2 ) ( 3 4 )
L:1/8
Q:1/4=95
M:4/4
K:G
V:1 treble 
V:2 treble 
V:3 bass 
V:4 bass 
V:1
 [B,D]2 [^A,^C]>[B,D] [CG]>[CF] [CG]>[C^A] | [B,B]2 [Ec]2 [DB]4 | %2
w: 1.~“Send us a Sav- ior,” hear the|na- tions cry;|
w: 2.~“Send us a Sav- ior, for our|al- tar fires|
w: 3.~“Send us a Sav- ior, for our|hearts are sore,|
 [Fd]2 [Fc]>[FB] [FA]>[^E^G] [FA]>[=Ec] | [DB]2 [DG]2 [CE]4 | %4
w: “Why in the dark- ness must we|pine and die?|
w: Bring not the peace for which the|soul as- pires;|
w: Bro- ken in spir- it, we can|bear no more;|
 [B,D]2 [^A,^C]>[B,D] [B,G]>[CF] [DG]>[D^A] | [DB]2 [=Fd]2 E4 | [Ec]2 [EB]>[EA] [DA][DG][DF]G | %7
w: Is there no help- er for the|sore op- pressed?|Is there no ref- uge where the|
w: Cleansed from our sin, from wrath di-|vine set free,|This is our need of needs, for|
w: Hearts torn with an- guish clam- or|loud for peace;|Is there no strong one who can|
 [GB]2 [DA]2 [DG]4 ||"^Refrain" G2 G>G F2 G>F | E2 E2 B,4 | [GB]2 [GB]>[GB] [FA]2 [GB]>[FA] | %11
w: wea- ry rest?”||||
w: this our plea.”|Bit- ter the cry of a|race in sin,|Grop- ing for light, yet it|
w: bring re- lease?”||||
 [EG]2 [EG]2 [^DF]4 | [EG]2 [EG]2 [FA]4 | [GB]2 [GB]2 (c2 !fermata!^c2) | %14
w: |||
w: breaks not in;|Shall they die,|while we cry, *|
w: |||
 [Gd]2 [Gd]>[Fd] [Ad]2 [Fe]>[Fd] | [Gd]6 z2 |] %16
w: ||
w: “Send us a Sav- ior, we|pray”?|
w: ||
V:2
 x8 | x8 | x8 | x8 | x8 | x4 E4 | x7 G | x8 || G2 G>G F2 G>F | E2 E2 B,4 | x8 | x8 | x8 | x4 G4 | %14
 x8 | x8 |] %16
V:3
 [G,,G,]2 [G,,G,]>[G,,G,] [G,,E,]>[G,,E,] [G,,_E,]>[G,,E,] | [G,,D,]2 [G,,G,]2 [G,,G,]4 | %2
 [D,A,]2 [D,A,]>[D,D] [D,C]>[D,B,] [D,C]>[D,F,] | G,2 [B,,G,]2 [C,G,]4 | %4
 [G,,G,]2 [G,,G,]>[G,,G,] [G,,G,]>[A,,D,] [B,,G,]>[D,F,] | G,2 [B,,G,]2 [C,G,]4 | %6
 [A,,A,]2 [B,,^G,]>[C,A,] [D,B,][D,B,][D,A,][D,B,] | [D,D]2 [D,C]2 [G,,B,]4 || %8
 G,2 G,>G, F,2 G,>F, | E,2 E,2 B,,4 | [G,B,]2 [G,B,]>[G,B,] [F,A,]2 [G,B,]>[F,A,] | %11
 [E,G,]2 [E,G,]2 F,2 B,2 | [E,B,]2 [E,B,]2 [D,D]4 | [G,D]2 [F,D]2 ([E,C]2 !fermata![_E,^A,]2) | %14
 [D,B,]2 [D,B,]>[D,A,] [D,C]2 [D,C]>[D,C] | [G,,G,B,]6 z2 |] %16
V:4
 x8 | x8 | x8 | G,2 x6 | x8 | G,2 x6 | x8 | x8 || G,2 G,>G, F,2 G,>F, | E,2 E,2 B,,4 | x8 | %11
 x4 B,,4 | x8 | x8 | x8 | x8 |] %16

